X:9127
T:Lady Ann Montgomery
R:Reel
H:Originally Scottish
D:Davy Spillane: Shadow Hunter
D:Moher
Z:id:hn-reel-201
M:C|
L:1/8
Q:1/4=200
K:D
FADA FADA|FAdA BAdA|~F3D ~E3F|DB,A,B, D2DA|
FADA FADA|FAdA BABc|dBAF E2FE|1 DB,A,B, D2DA:|2 DB,A,B, D3e||
|:~f3e fede|fedB ABde|~f3e fede|faaf e2de|
~f3e fede|fedB ABde|fded BdAe|1 fage d2de:|2 fage d2AG|
